X:1
T:Sweetheart
T:Sweetheart
T:Arthur Weld Op.35 n.° 1
T:By IMSLP Public Domain
T:By IMSLP Public Domain
T:By IMSLP Public Domain
T:By IMSLP Public Domain
C:Arthur Weld Op.35 n.° 1
Z:By IMSLP Public Domain
%%score ( 1 2 ) { ( 3 5 ) | ( 4 6 7 ) }
L:1/8
Q:1/4=68
M:2/4
K:Ab
V:1 treble nm="Voice"
V:2 treble 
V:3 treble nm="Piano"
V:5 treble 
V:4 bass 
V:6 bass 
V:7 bass 
V:1
"^Andantino sostenuto" z4 | z4 | z4 | z4 |!p! F c2 A | G (^F/G/) A G | F c2 A | G (^F/G/) A G | %8
w: ||||Sweet\- hearth. the|tears have * passed but|slow\- ly, Since|first we _ met; But|
 F (G/A/) B c |!f! d (B/c/) (d/c/) B | c (G/A/) (B/A/) G | F2!ppp! D2 | C G/ A/ B/ A/ G | F4- | %14
w: tho' they * dragged I|found that * I * could|nev\- er _ quite * for\-|get, for\-|get, I could nev\- er for\-|get|
 F z z!mf! _F | _E E B B | A A f f | e (B/c/) (d/c/) =B | (c>d c) =E | F F c c | BA !fermata!gf | %21
w: _ Now|that I see your|face a\- gain, It|seems but _ yes\- * ter\-|day _ _ When|part\- ing in ex|qui\- site pain, *|
 =e G/=A/ =B/c/ =d | c3 B |"^a tempo"!pp! A2 G2 | F G A F | A2 G2 | d2 G2 | A2 G2 | F G A F | %29
w: went so _ far _ a\-|way _|Far or|near I nev\- er|could for\-|get you!|Storm or|clear how could I|
 A2 G2 | d2 G2 | c2 B2 | A B A G | F2 A2 | c2 B2 |!f!"^appassionato" e2 c2 | B A F A | c4 | B4 | %39
w: but re\-|gret you!|Day and|night my thought was|how I|miss you;|Wrong or|right my wish to|kiss|you!|
!p! c2 c2 | c c c c | d2 d2 | d2 G2 | e2 =d2 | e =d e ^f | f2 f2 | g2 f2 | !>!a2 !>!e2 | f e d c | %49
w: Wait\- ing,|sigh\- ing from the|day we|part\- ed.|Al\- most|dy\- ig, I was|brok\- en|heart\- ed,|Af\- ter|laugh\- ter come the|
 e2 d2 | (c2 B2) |!p! A2"^rall. molto" F2 |[Q:1/4=58] A F G A |{/c} B7/2 A/ | A4 |] %55
w: tears of|pain _|Meet\- ing,|greet\- ing we are|glad a\-|gain!|
V:2
 x4 | x4 | x4 | x4 | x4 | x4 | x4 | x4 | x4 | x4 | x4 | x2 d2 | c2 x2 | x4 | x4 | x4 | x4 | x4 | %18
 x4 | x4 | x4 | x4 | x4 | x4 | x4 | x4 | x4 | x4 | x4 | x4 | x4 | x4 | x4 | x4 | x4 | x4 | x4 | %37
 x4 | x4 | x4 | x4 | x4 | x4 | x4 | x4 | x4 | x4 | x4 | x4 | x4 | x4 | x4 | x4 | x4 | x4 |] %55
V:3
!p! z[I:staff +1] ([A,C]/[G,=B,]/) [A,C][I:staff -1][A,F] | [DF]2!<(! [=DF](3[=EG]/[DF]/[EG]/!<)! | %2
 [CFA][I:staff +1][A,C]/[G,=B,]/ [A,C][I:staff -1][A,F] | [DF]2!<(! [=DF](3[=EG]/[DF]/[EG]/!<)! | %4
!p! [A,CF] !^![Ac]2 [FA] | (G^F/G/ AG) | [A,CF] !^![Ac]2 [FA] | (G^F/G/ AG) | %8
!<(! (FG/A/ [FB][EFc])!<)! |!f! ([DFd][DFB]/[EF=Ac]/ [DFd]/[EFAc]/[DFB]) | %10
!>(! ([FGc][=EG]/[FA]/ [CGB]/[CFA]/[CEG])!>)! | F2!ppp! D2 | %12
 (C!<(![=EG]/[FA]/!<)!!>(! [CGB]/[CFA]/[CEG])!>)! | (F/G/A/B/) (f/g/a/c'/) | (f'/a/g/a/) f z | %15
 EE BB | AA [=ABf][ABf] | ([Ge][GB]/[Ac]/) (d/c/=B) | (c>dcB) | [FA]F cc | BA !fermata!gf | %21
 (=eG/A/) ([G=B]/[=Ac]/[B=d]/) z/ |"^rall. molto" (c2- cB) | ([Aca]2 [Gcg]2) | %24
 ([Fcf][Gcg][Aca][Fcf]) |!<(! ([Ada]2 [Gdg]2)!<)! |!>(! ([dgd']2 [Gdg]2)!>)! | ([Aca]2 [Gcg]2) | %28
 ([Acf][Gcg][Aca][Fcf]) |!<(! ([Ada]2 [Gdg]2)!<)! |!>(! ([dgd']2 [Gdg]2)!>)! | (c2 B2) | (ABAG) | %33
 (F2 A2) | ([Cc]2!<(! [B,B]2)!<)! |!f! ([Ee]2 [Cc]2) | (ABAG) | c4 | %38
 [_DEGB]!>![F_df]!>![Ece]!>![DBd] |!p!"^a tempo" c2 c2 |"_cresc." c2 c2 | d2 d2 | ([Gd]2 [EG]2) | %43
!<(! ([EAe]2 [=DA=d]2) | ([EAe][=DA=d][EAe][=EB=e]) | [FAf]2 [FAf]2 | ([G=Bg]2 [FBf]2)!<)! | %47
!ff! !>![Acea]2 !>![EAce]2 | (fedc) |!>(! ([FBe]2 [FBd]2) | ([CGc]2 [CGB]2)!>)! | %51
!p! ([CFA]2 [A,CF]2) | ([DA][DF][DG][DA]) |{/c} [DGB]7/2 [CEA]/ | [CEA]2!sfz! !^![Acea] z |] %55
V:4
 F,4- | F,3 C, | F,4- | F,3 C, | [F,A,](C/=B,/) (CF) | (=B,=D) (_B,=E) | A,(C/=B,/) (CF) | %7
 (=B,=D) (_B,=E) | A, [CF]2 [=A,,,=A,,] | ([B,,,B,,][D,,D,]/[C,,C,]/ [B,,,B,,]/[C,,C,]/[D,,D,]) | %10
 (G,>F,) (=E,/F,/G,) | z [A,C]z[F,A,] | [C,E,G,]>(F, =E,/)F,/G, | [F,,F,]3 [C,,C,] | %14
 [F,,,F,,]3!mf! z | _E,2 _D,2 | (C,2 _C,2 | B,,2) E,,G, | A,,[E,A,] G,,[G,C] | %19
 F,,[F,A,C] _E,[F,A,C] | D,C, !fermata!=B,,[F,G,] | C,[=E,G,] G,,[=D,F,G,] | %22
"^rall. molto" [C,,C,]G, [_E,,,_E,,]2 |"^a tempo" z !^![E,A,C]3!8vb(!!8vb)! | %24
"^e legatissimo" z !^![E,A,C]3!8vb(!!8vb)! | z !^![E,B,D]3!8vb(!!8vb)! | %26
 z !^![E,B,D]3!8vb(!!8vb)! | z !^![E,A,C]3!8vb(!!8vb)! | z !^![E,A,C]3!8vb(!!8vb)! | %29
 z !^![E,A,C]3!8vb(!!8vb)! | z !^![E,B,D]3!8vb(!!8vb)! | z !^![E,B,D]3!8vb(!!8vb)! | %32
 z !^![E,A,C]3 | A,,3 F, | E,2 D,2 | C,3 C, | D,3 D, | z [F,C]2 [F,C] | %38
 [E,,E,]!8vb(!!>!E,,,!>!F,,,!>!G,,,!8vb)! | z"^sempre" [E,A,C]3!8vb(!!8vb)! | %40
 z [E,A,C]3!8vb(!!8vb)! | z [E,B,D]3!8vb(!!8vb)! | z [E,B,D]3 | z [E,A,C]3!8vb(!!8vb)! | %44
 [A,,,A,,]3 [C,,C,] | z [F,A,D]2 [F,A,D] | z [F,G,=A,]2 [F,G,B,] | z [A,CE]3 | z [F,CE]3 | %49
 z [F,B,D]3 | z [G,B,C]3 | z [F,A,C]3 | z [F,A,]3 | z [G,B,]2 z | [A,,,A,,]2 !^![A,,,A,,] z |] %55
V:5
 x4 | (=A,B, =B,)_B, | x4 | (=A,B, =B,)_B, | x4 | x4 | x4 | x4 | x4 | x4 | x4 | x4 | x4 | %13
 [A,C] [A,CF]2 [A,CF] | [A,F]3 _F | _E4- | _E2 =D2 | x2 B/A/G/F/ | EC=D=E | (C4 | (E2) [=DG=d]2) | %21
 [=EG]2 F2 | [FG](3=E/_E/=D/ [_EG]2 | x4 | x4 | x4 | x4 | x4 | x4 | x4 | x4 | z [CG]z[CG] | %32
 z [CF]zC | z [A,C]z[CF] | z [EA]z[EG] | z [FA]z[EA] | z [DF]z[DF] | z [=DA]2 [DA] | x4 | A2 G2 | %40
 (FGAF) | (A2 G>F) | x4 | x4 | x4 | x4 | x4 | x4 | [Fc]3 F | x4 | x4 | x4 | x4 | x4 | x4 |] %55
V:6
 x4 | x4 | x4 | x4 | x4 | x4 | x4 | x4 | x4 | x4 | [C,,C,]4 | [F,,F,]2 [D,,D,]2 | [C,,C,]4 | x4 | %14
 x4 | (E,[G,B,] D,[G,B,]) | C,[E,A,] _C,[F,A,] | B,,[E,G,] x2 | x4 | x4 | x4 | x4 | x4 | %23
 [A,,,A,,]3!8vb(! E,,,!8vb)! | [A,,,A,,]3!8vb(! E,,,!8vb)! | [A,,,A,,]3!8vb(! E,,,!8vb)! | %26
 [A,,,A,,]3!8vb(! E,,,!8vb)! | [A,,,A,,]3!8vb(! E,,,!8vb)! | [A,,,A,,]3!8vb(! E,,,!8vb)! | %29
 [A,,,A,,]3!8vb(! E,,,!8vb)! | [A,,,A,,]3!8vb(! E,,,!8vb)! | [A,,,A,,]3!8vb(! E,,,!8vb)! | %32
 [A,,,A,,]3 E,, | x4 | x4 | x4 | x4 | [=D,,=D,]4 | x!8vb(! x3!8vb)! | [A,,,A,,]3!8vb(! E,,,!8vb)! | %40
 [A,,,A,,]3!8vb(! E,,,!8vb)! | [B,,,B,,]3!8vb(! E,,,!8vb)! | [B,,,B,,]3 E,, | %43
 [A,,,A,,]3!8vb(! E,,,!8vb)! | x4 | [D,,D,]4 | [=D,,=D,]4 | [E,,E,]3 [E,,E,] | %48
 [=A,,,=A,,]3 [A,,,A,,] | [B,,,B,,]3 [B,,,B,,] | [=E,,=E,]3 [E,,E,] | %51
 [F,,F,]3"^rall. molto" [F,,,F,,] | [B,,,B,,]3 [B,,,B,,] | [E,,E,]7/2 [A,,,A,,]/ | x4 |] %55
V:7
 x4 | x4 | x4 | x4 | x4 | x4 | x4 | x4 | x4 | x4 | x4 | F,2 D,2 | x4 | x4 | x4 | x4 | x4 | x4 | %18
 x4 | x4 | x4 | x4 | x4 | x3!8vb(! x!8vb)! | x3!8vb(! x!8vb)! | x3!8vb(! x!8vb)! | %26
 x3!8vb(! x!8vb)! | x3!8vb(! x!8vb)! | x3!8vb(! x!8vb)! | x3!8vb(! x!8vb)! | x3!8vb(! x!8vb)! | %31
 x3!8vb(! x!8vb)! | x4 | x4 | x4 | x4 | x4 | x4 | x!8vb(! x3!8vb)! | x3!8vb(! x!8vb)! | %40
 x3!8vb(! x!8vb)! | x3!8vb(! x!8vb)! | x4 | x3!8vb(! x!8vb)! | x4 | [D,,D,]3 [D,,D,] | %46
 [=D,,=D,]3 [D,,D,] | x4 | x4 | x4 | x4 | x4 | x4 | x4 | x4 |] %55

